logo.svg

<?xml version="1.0" encoding="UTF-8" standalone="no"?>
<svg width="128px" height="128px" viewBox="0 0 128 128" version="1.1" xmlns="http://www.w3.org/2000/svg" xmlns:xlink="http://www.w3.org/1999/xlink">
    <!-- Generator: Sketch 3.8.1 (29687) - http://www.bohemiancoding.com/sketch -->
    <title>Rectangle 1 Copy 7 + Path 1 + Path 2 Copy 7 Copy Copy Copy Copy Copy Copy Copy</title>
    <desc>Created with Sketch.</desc>
    <defs></defs>
    <g id="Page-1" stroke="none" stroke-width="1" fill="none" fill-rule="evenodd">
        <g id="iPad-Landscape" transform="translate(-448.000000, -57.000000)">
            <rect id="Rectangle-1-Copy" fill="#ECF0F1" x="0" y="0" width="1024" height="384"></rect>
            <g id="Rectangle-1-Copy-7-+-Path-1-+-Path-2-Copy-7-Copy-Copy-Copy-Copy-Copy-Copy-Copy" transform="translate(448.000000, 57.000000)">
                <rect id="Rectangle-1-Copy-7" fill="#9E4D9C" x="0" y="0" width="128" height="128" rx="8"></rect>
                <path d="M39.9999999,24 L55.9999999,16 L87.9999999,32 L87.9999998,96 L71.9999998,104 L71.9999998,40 L39.9999999,24 Z M71.9999999,103.999997 L55.3967774,112 L39.9999999,103.621818 L39.9999999,38.5396241 L55.9937744,42.0447997 L55.9937744,95.9818124 L71.9999999,103.999997 Z" id="Path-1" fill="#FFFFFF"></path>
            </g>
        </g>
    </g>
</svg>

<svg width="128" height="128" viewBox="0 0 128 128" xmlns="http://www.w3.org/2000/svg"><title>Dullahan logo</title><g fill="none" fill-rule="evenodd"><path fill="#ECF0F1" d="M-448-57H576v384H-448z"/><g><rect fill="#9E4D9C" width="128" height="128" rx="8"/><path d="M40 24l16-8 32 16v64l-16 8V40L40 24zm32 80l-16.603 8L40 103.622V38.54l15.994 3.505v53.937L72 104z" fill="#FFF"/></g></g></svg>
